airplane-landing.svg

<svg fill="currentColor" viewBox="0 0 24 24"><path d="M2.5 19h19v2h-19zm7.18-5.73 4.35 1.16 5.31 1.42c.8.21 1.62-.26 1.84-1.06.21-.79-.26-1.62-1.06-1.84l-5.31-1.42-2.76-9.03-1.93-.5v8.28L5.15 8.95l-.93-2.32-1.45-.39v5.17l1.6.43z"/></svg>

<svg  viewBox="0 0 24 24" fill="currentColor"><path  d="M2.5,19H21.5V21H2.5V19M9.68,13.27L14.03,14.43L19.34,15.85C20.14,16.06 20.96,15.59 21.18,14.79C21.39,14 20.92,13.17 20.12,12.95L14.81,11.53L12.05,2.5L10.12,2V10.28L5.15,8.95L4.22,6.63L2.77,6.24V11.41L4.37,11.84L9.68,13.27Z"/></svg>
